X: 26
T:Minuet. TBe.026
M:3/4
L:1/4
Q:75
S:Thomas Bennet MS,1718, VWML
R:minuet
O:England
H:1718
Z:vmp.C. Graebe..
K:D major
A2 d | A G/F/E/D/ |  A2d | A G/F/E/D/ |\
A2d | c B/A/ d | ef>g | e3 ||!
eaa | a g/f/g | Ggg | gf/e/ f | F e/f/e/d/ | c B/A/  d |\
e c2 | d3 ||
